src/amo/components/Icon/img/permissions/downloads.svg

<svg xmlns="http://www.w3.org/2000/svg" xmlns:xlink="http://www.w3.org/1999/xlink" width="24" height="24" viewBox="0 0 24 24">
  <defs>
    <path id="downloads-a" d="M10.9395,19.0605 C11.5252498,19.6460729 12.4747502,19.6460729 13.0605,19.0605 L20.5605,11.5605 C21.1289583,10.9719317 21.1208286,10.0363728 20.5422279,9.45777214 C19.9636272,8.87917144 19.0280683,8.87104169 18.4395,9.4395 L13.5,14.379 L13.5,1.5 C13.5,0.671572875 12.8284271,5.07265313e-17 12,0 C11.1715729,-5.07265313e-17 10.5,0.671572875 10.5,1.5 L10.5,14.379 L5.5605,9.4395 C4.97193167,8.87104169 4.03637283,8.87917144 3.45777214,9.45777214 C2.87917144,10.0363728 2.87104169,10.9719317 3.4395,11.5605 L10.9395,19.0605 Z M19.5,21 L4.5,21 C3.67157288,21 3,21.6715729 3,22.5 C3,23.3284271 3.67157288,24 4.5,24 L19.5,24 C20.3284271,24 21,23.3284271 21,22.5 C21,21.6715729 20.3284271,21 19.5,21 Z"/>
  </defs>
  <g fill="none" fill-rule="evenodd">
    <rect width="24" height="24"/>
    <mask id="downloads-b" fill="#fff">
      <use xlink:href="#downloads-a"/>
    </mask>
    <g fill="#0F1126" mask="url(#downloads-b)">
      <rect width="24" height="24"/>
    </g>
  </g>
</svg>

<svg xmlns="http://www.w3.org/2000/svg" xmlns:xlink="http://www.w3.org/1999/xlink" width="24" height="24"><defs><path id="a" d="M10.94 19.06a1.5 1.5 0 0 0 2.12 0l7.5-7.5a1.5 1.5 0 0 0-2.12-2.12l-4.94 4.939V1.5a1.5 1.5 0 0 0-3 0v12.879l-4.94-4.94a1.5 1.5 0 0 0-2.12 2.121l7.5 7.5ZM19.5 21h-15a1.5 1.5 0 0 0 0 3h15a1.5 1.5 0 0 0 0-3Z"/></defs><g fill="none" fill-rule="evenodd"><path d="M0 0h24v24H0z"/><mask id="b" fill="#fff"><use xlink:href="#a"/></mask><g fill="#0F1126" mask="url(#b)"><path d="M0 0h24v24H0z"/></g></g></svg>
